X: 1334
T: Timothy Downing
R:Reel
N:Collected by Beamish
B:O'Neill's 1334
Z:Transcribed by Trish O'Neil
M:C|
L:1/8
K:C
c2(Bc) (AB)G2|cde^f {a}gede|c2(Bc) (AB)G2|ea{b}ag efde|
(3cdc (3BcB (3ABAG2|cde^f {a}gede|(3cdc (3BcB (3ABAG2|ea{b}ag (3efed2||
aedeg2(ag)|ed^cd efge|aedeg2(ag)|ea{b}ag efde|
aedeg2(ag)|ed^cd e^fge|c2ccd2dd|ea{b}ag "D.C."efde|]


